ui/StatusQ/src/assets/img/icons/tiny/tribute-to-talk.svg

<svg fill="none" height="17" viewBox="0 0 16 17" width="16" xmlns="http://www.w3.org/2000/svg"><path clip-rule="evenodd" d="m8 2.5c-3.31371 0-6 2.68629-6 6v4c0 1.1046.89543 2 2 2h4c3.3137 0 6-2.6863 6-6 0-3.31371-2.6863-6-6-6zm-.36162 5.63711h-.00001c-.41963-.04521-.83927-.09042-1.35525-.06062-.25589.01437-.51.05146-.75936.11083.15229-1.90797 1.50262-3.57703 3.33884-3.68313 1.12683-.06502 2.2531.6307 2.3142 1.76012.0601 1.11006-.7865 1.85284-2.18385 1.93345-.51568.02972-.93513-.01547-1.35457-.06065zm-1.41863 4.35899c-1.07949.0609-2.15829-.5904-2.21687-1.6472-.05761-1.03896.75339-1.73398 2.09207-1.80944.49396-.02784.89578.01446 1.29758.05676h.00001.00002c.40198.04231.80393.08463 1.29811.05671.24501-.01343.48839-.04814.72743-.10373-.14563 1.7856-1.43918 3.3477-3.19835 3.4469z" fill="#000" fill-rule="evenodd"/></svg>

<svg width="16" height="17" viewBox="0 0 16 17" fill="none" xmlns="http://www.w3.org/2000/svg">
<path fill-rule="evenodd" clip-rule="evenodd" d="M8 2.5C4.68629 2.5 2 5.18629 2 8.5V12.5C2 13.6046 2.89543 14.5 4 14.5H8C11.3137 14.5 14 11.8137 14 8.5C14 5.18629 11.3137 2.5 8 2.5ZM7.63838 8.13711L7.63837 8.13711C7.21874 8.0919 6.7991 8.04669 6.28312 8.07649C6.02723 8.09086 5.77312 8.12795 5.52376 8.18732C5.67605 6.27935 7.02638 4.61029 8.8626 4.50419C9.98943 4.43917 11.1157 5.13489 11.1768 6.26431C11.2369 7.37437 10.3903 8.11715 8.99295 8.19776C8.47727 8.22748 8.05782 8.18229 7.63838 8.13711ZM6.21975 12.4961C5.14026 12.557 4.06146 11.9057 4.00288 10.8489C3.94527 9.80994 4.75627 9.11492 6.09495 9.03946C6.58891 9.01162 6.99073 9.05392 7.39253 9.09622L7.39254 9.09622L7.39256 9.09622C7.79454 9.13853 8.19649 9.18085 8.69067 9.15293C8.93568 9.1395 9.17906 9.10479 9.4181 9.0492C9.27247 10.8348 7.97892 12.3969 6.21975 12.4961Z" fill="black"/>
</svg>
